logo/svg/Logo-Clear.svg

<svg xmlns="http://www.w3.org/2000/svg" fill="none" viewBox="0 0 500 500">
  <path fill="#55656D" fill-rule="evenodd" d="M91.21 364.132c-15.471-4.145-24.652-20.047-20.507-35.518L133.337 94.86c4.145-15.47 20.047-24.651 35.518-20.506l146.821 39.341c1.224.328 2.409.729 3.551 1.199 55.341 16.406 90.356 47.989 96.773 85.508 6.48 37.888-17.411 72.83-60.728 93.612l45.552 88.096c3.805 7.359.924 16.409-6.434 20.214-7.359 3.805-16.409.924-20.214-6.434l-48.836-94.448c-6.465-12.503-.231-26.969 11.676-32.079 40.251-17.274 52.974-43.088 49.414-63.903-2.991-17.486-18.307-37.838-51.183-52.761l-61.7 230.267c-4.145 15.471-20.047 24.652-35.517 20.507L91.21 364.132Zm213.343-222.359c.631.271 1.288.502 1.968.69l.383.105-33.846 126.313-65.719-65.72c-4.882-4.881-12.796-4.881-17.678 0-4.881 4.882-4.881 12.796 0 17.678l75.926 75.926-20.759 77.471L99.94 335.413l32.395-120.901 35.826 35.827 52 52c4.882 4.881 12.796 4.881 17.678 0 4.881-4.882 4.881-12.796 0-17.678l-52-52-46.033-46.032 14.612-54.533 25.243 25.243 35.75 35.75c4.882 4.881 12.796 4.881 17.678 0 4.881-4.882 4.881-12.796 0-17.678l-35.75-35.75-35.449-35.449.166-.621 142.497 38.182Z" clip-rule="evenodd"/>
  <path fill="#96A78E" d="M113.772 320.421c4.842-5.374 8.38-8.305 11.098-9.702 3.753 2.094 2.518 7.44 1.886 9.346-.077-.445-.207-.835-.511-1.042-.472.394-.628 2.199-1.619 3.223.029-.487-.005-.728-.285-1.035-.663 1.041-1.3 2.182-2.087 2.743.109-.387.288-.728.076-1.329-.816.873-1.537 1.844-2.592 2.466.128-.53.287-1.095.14-1.312a11.718 11.718 0 0 1-2.535 1.86c.285-.713.293-1.045.214-1.257-.902.513-1.744 1.243-2.737 1.433.333-.497.539-.978.361-1.412-.598.096-1.188 1.037-2.594 1.293.21-.561.442-1.153.351-1.309-1.149-.021-1.877.275-2.625.557.312-1.237.835-3.098.71-3.041l-.974.555c.002-1.289.703-2.421 1.219-3.241-.205-.485-.711-.183-1.247.198a12.62 12.62 0 0 1 1.434-2.598c-.279-.553-.875.076-1.369.326.72-1.501 1.316-2.059 1.911-2.613-.328-.605-.839-.254-1.325-.035.756-1.075 1.484-1.538 2.214-2.035-.234-.297-.358-.692-1.173-.474.709-.716 1.448-1.201 2.211-1.502-.189-.612-.696-.521-1.111-.635.943-.69 1.845-1.046 2.763-1.532-.062-.165-.366-.375-.869-.624 2.575-1.558 8.439-3.163 9.297 1.675-3.966 2.859-7.306 6.648-10.232 11.055v-.002m8.851-33.031c1.506 7.075 3.104 11.382 4.76 13.951 4.297.063 5.9-5.184 6.306-7.151-.289.347-.596.62-.963.647-.212-.578.555-2.219.209-3.601-.218.437-.368.628-.764.754-.054-1.233-.035-2.54-.436-3.419-.099.39-.115.774-.599 1.189-.27-1.164-.409-2.366-1.012-3.432-.154.523-.298 1.093-.534 1.206-.321-1.084-.745-2.041-1.266-2.877-.109.76-.268 1.05-.443 1.195-.525-.896-.888-1.949-1.654-2.61.04.597-.022 1.117-.393 1.404-.47-.382-.51-1.492-1.6-2.417-.099.591-.194 1.22-.351 1.309-1.005-.557-1.488-1.177-1.995-1.795-.348 1.227-.825 3.1-.906 2.988l-.566-.968c-.642 1.118-.6 2.449-.564 3.417-.421.317-.707-.197-.981-.795a12.609 12.609 0 0 0-.057 2.967c-.519.339-.72-.504-1.023-.967-.127 1.66.11 2.441.349 3.218-.587.361-.854-.199-1.165-.631.117 1.308.516 2.073.899 2.868-.351.141-.656.421-1.252-.176.256.975.653 1.765 1.164 2.407-.47.435-.864.103-1.28-.006.471 1.069 1.075 1.829 1.627 2.709-.136.111-.504.141-1.065.105 1.451 2.637 5.727 6.959 8.889 3.198-2.006-4.457-3.004-9.408-3.334-14.687"/>
  <path fill="#DBD7B6" d="M161.693 306.907c3.828 1.002 6.037 5.214 4.935 9.407-1.102 4.194-5.098 6.782-8.926 5.78l-.073-.02c-3.827-1.002-6.037-5.214-4.935-9.407 1.102-4.194 5.099-6.782 8.926-5.78l.073.02m-22.975 6.675c2.879-2.597 7.648-1.926 10.653 1.498 3.004 3.424 3.105 8.305.226 10.902-2.879 2.596-7.649 1.925-10.653-1.499-3.004-3.424-3.106-8.305-.226-10.901Zm1.903-8.58c1.196 3.688 5.662 5.492 9.975 4.029 4.314-1.464 6.842-5.64 5.647-9.328-1.195-3.688-5.661-5.492-9.975-4.029-4.313 1.463-6.842 5.639-5.647 9.328Zm-2.781 25.178c.009-3.634 14.195 2.576 12.242 5.011-3.23 2.389-10.569 1.47-12.242-5.011m10.321-39.257c-1.809 3.152 13.583 4.867 13.109 1.782-1.603-3.684-8.419-6.559-13.109-1.782ZM134.06 299.5c.59-6.117 5.338-10.067 11.567-8.187 2.357.838-11.786 10.44-11.567 8.187m-4.519 16.127c-2.547 5.593-.41 11.387 5.925 12.874 2.46.452-4.988-14.935-5.925-12.874m.788-8.803c-1.026 3.47.732 7.536 2.27 7.957 1.87.511 4.529-1.748 5.681-5.852 1.157-4.196.311-7.298-1.617-7.83-2.185-.602-5.537 2.615-6.334 5.725Zm38.447 10.073c.685-3.082 2.883-6.875 4.348-6.491 1.433.33 3.635 4.948 2.599 8.569-.849 3.81-5.052 6.643-6.154 6.296-1.648-.381-1.679-5.366-.793-8.374m-11.684 8.931c3.167-1.477 7.975-1.248 8.829.921.564 1.986-.972 6.032-5.966 7.862-4.06 1.049-7.579-.169-8.258-1.851-.701-2.432 1.87-5.209 5.395-6.933v.001Zm5.094-22.292c2.091 3.075 6.703 5.711 8.759 4.428 1.68-1.305 2.684-5.746-.903-10.186-2.362-3.159-7.572-3.709-9.26-2.718-2.067 1.59-.877 4.986 1.403 8.475l.001.001Z"/>
</svg>

<svg width="500" height="500" viewBox="0 0 500 500" fill="none" xmlns="http://www.w3.org/2000/svg">
<g filter="url(#filter0_d_17_171)">
<path d="M150.5 100L222 171.5M265.5 243.5L187 165M137 144.5L241 248.5" stroke="#55656D" stroke-width="17" stroke-linecap="round"/>
</g>
<g filter="url(#filter1_d_17_171)">
<rect x="81.5684" y="346.02" width="270" height="180" rx="14" transform="rotate(-75 81.5684 346.02)" stroke="#55656D" stroke-width="20" shape-rendering="crispEdges"/>
</g>
<g filter="url(#filter2_d_17_171)">
<path d="M310.5 128C421.555 158.552 430.541 245.549 342.931 283.147C338.508 285.045 336.453 290.277 338.664 294.553L387.5 389" stroke="#55656D" stroke-width="20" stroke-linecap="round"/>
</g>
<path d="M113.772 320.421C118.614 315.047 122.152 312.116 124.87 310.719C128.623 312.813 127.388 318.159 126.756 320.065C126.679 319.62 126.549 319.23 126.245 319.023C125.773 319.417 125.617 321.222 124.626 322.246C124.655 321.759 124.621 321.518 124.341 321.211C123.678 322.252 123.041 323.393 122.254 323.954C122.363 323.567 122.542 323.226 122.33 322.625C121.514 323.498 120.793 324.469 119.738 325.091C119.866 324.561 120.025 323.996 119.878 323.779C119.058 324.558 118.212 325.174 117.343 325.639C117.628 324.926 117.636 324.594 117.557 324.382C116.655 324.895 115.813 325.625 114.82 325.815C115.153 325.318 115.359 324.837 115.181 324.403C114.583 324.499 113.993 325.44 112.587 325.696C112.797 325.135 113.029 324.543 112.938 324.387C111.789 324.366 111.061 324.662 110.313 324.944C110.625 323.707 111.148 321.846 111.023 321.903L110.049 322.458C110.051 321.169 110.752 320.037 111.268 319.217C111.063 318.732 110.557 319.034 110.021 319.415C110.43 318.429 110.91 317.567 111.455 316.817C111.176 316.264 110.58 316.893 110.086 317.143C110.806 315.642 111.402 315.084 111.997 314.53C111.669 313.925 111.158 314.276 110.672 314.495C111.428 313.42 112.156 312.957 112.886 312.46C112.652 312.163 112.528 311.768 111.713 311.986C112.422 311.27 113.161 310.785 113.924 310.484C113.735 309.872 113.228 309.963 112.813 309.849C113.756 309.159 114.658 308.803 115.576 308.317C115.514 308.152 115.21 307.942 114.707 307.693C117.282 306.135 123.146 304.53 124.004 309.368C120.038 312.227 116.698 316.016 113.772 320.423L113.772 320.421M122.623 287.39C124.129 294.465 125.727 298.772 127.383 301.341C131.68 301.404 133.283 296.157 133.689 294.19C133.4 294.537 133.093 294.81 132.726 294.837C132.514 294.259 133.281 292.618 132.935 291.236C132.717 291.673 132.567 291.864 132.171 291.99C132.117 290.757 132.136 289.45 131.735 288.571C131.636 288.961 131.62 289.345 131.136 289.76C130.866 288.596 130.727 287.394 130.124 286.328C129.97 286.851 129.826 287.421 129.59 287.534C129.269 286.45 128.845 285.493 128.324 284.657C128.215 285.417 128.056 285.707 127.881 285.852C127.356 284.956 126.993 283.903 126.227 283.242C126.267 283.839 126.205 284.359 125.834 284.646C125.364 284.264 125.324 283.154 124.234 282.229C124.135 282.82 124.04 283.449 123.883 283.538C122.878 282.981 122.395 282.361 121.888 281.743C121.54 282.97 121.063 284.843 120.982 284.731L120.416 283.763C119.774 284.881 119.816 286.212 119.852 287.18C119.431 287.497 119.145 286.983 118.871 286.385C118.732 287.444 118.717 288.43 118.814 289.352C118.295 289.691 118.094 288.848 117.791 288.385C117.664 290.045 117.901 290.826 118.14 291.603C117.553 291.964 117.286 291.404 116.975 290.972C117.092 292.28 117.491 293.045 117.874 293.84C117.523 293.981 117.218 294.261 116.622 293.664C116.878 294.639 117.275 295.429 117.786 296.071C117.316 296.506 116.922 296.174 116.506 296.065C116.977 297.134 117.581 297.894 118.133 298.774C117.997 298.885 117.629 298.915 117.068 298.879C118.519 301.516 122.795 305.838 125.957 302.077C123.951 297.62 122.953 292.669 122.623 287.39L122.623 287.39" fill="#96A78E"/>
<path d="M161.693 306.907C165.521 307.909 167.73 312.121 166.628 316.314C165.526 320.508 161.53 323.096 157.702 322.094C157.678 322.087 157.653 322.081 157.629 322.074C153.802 321.072 151.592 316.86 152.694 312.667C153.796 308.473 157.793 305.885 161.62 306.887L161.693 306.907M138.718 313.582C141.597 310.985 146.366 311.656 149.371 315.08C152.375 318.504 152.476 323.385 149.597 325.982C146.718 328.578 141.948 327.907 138.944 324.483C135.94 321.059 135.838 316.178 138.718 313.582ZM140.621 305.002C141.817 308.69 146.283 310.494 150.596 309.031C154.91 307.567 157.438 303.391 156.243 299.703C155.048 296.015 150.582 294.211 146.268 295.674C141.955 297.137 139.426 301.313 140.621 305.002ZM137.84 330.18C137.849 326.546 152.035 332.756 150.082 335.191C146.852 337.58 139.513 336.661 137.84 330.18M148.161 290.923C146.352 294.075 161.744 295.79 161.27 292.705C159.667 289.021 152.851 286.146 148.161 290.923ZM134.06 299.5C134.65 293.383 139.398 289.433 145.627 291.313C147.984 292.151 133.841 301.753 134.06 299.5M129.541 315.627C126.994 321.22 129.131 327.014 135.466 328.501C137.926 328.953 130.478 313.566 129.541 315.627M130.329 306.824C129.303 310.294 131.061 314.36 132.599 314.781C134.469 315.292 137.128 313.033 138.28 308.929C139.437 304.733 138.591 301.631 136.663 301.099C134.478 300.497 131.126 303.714 130.329 306.824L130.329 306.824ZM168.776 316.897C169.461 313.815 171.659 310.022 173.124 310.406C174.557 310.736 176.759 315.354 175.723 318.975C174.874 322.785 170.671 325.618 169.569 325.271C167.921 324.89 167.89 319.905 168.776 316.897M157.092 325.828C160.259 324.351 165.067 324.58 165.921 326.749C166.485 328.735 164.949 332.781 159.955 334.611C155.895 335.66 152.376 334.442 151.697 332.76C150.996 330.328 153.567 327.551 157.092 325.827L157.092 325.828ZM162.186 303.536C164.277 306.611 168.889 309.247 170.945 307.964C172.625 306.659 173.629 302.218 170.042 297.778C167.68 294.619 162.47 294.069 160.782 295.06C158.715 296.65 159.905 300.046 162.185 303.535L162.186 303.536Z" fill="#DBD7B6"/>
<defs>
<filter id="filter0_d_17_171" x="128.5" y="91.5" width="149.5" height="165.5" filterUnits="userSpaceOnUse" color-interpolation-filters="sRGB">
<feFlood flood-opacity="0" result="BackgroundImageFix"/>
<feColorMatrix in="SourceAlpha" type="matrix" values="0 0 0 0 0 0 0 0 0 0 0 0 0 0 0 0 0 0 127 0" result="hardAlpha"/>
<feOffset dx="4"/>
<feComposite in2="hardAlpha" operator="out"/>
<feColorMatrix type="matrix" values="0 0 0 0 0 0 0 0 0 0 0 0 0 0 0 0 0 0 0.25 0"/>
<feBlend mode="normal" in2="BackgroundImageFix" result="effect1_dropShadow_17_171"/>
<feBlend mode="normal" in="SourceGraphic" in2="effect1_dropShadow_17_171" result="shape"/>
</filter>
<filter id="filter1_d_17_171" x="74.7089" y="78.3602" width="261.467" height="326.106" filterUnits="userSpaceOnUse" color-interpolation-filters="sRGB">
<feFlood flood-opacity="0" result="BackgroundImageFix"/>
<feColorMatrix in="SourceAlpha" type="matrix" values="0 0 0 0 0 0 0 0 0 0 0 0 0 0 0 0 0 0 127 0" result="hardAlpha"/>
<feOffset dx="4" dy="5"/>
<feComposite in2="hardAlpha" operator="out"/>
<feColorMatrix type="matrix" values="0 0 0 0 0 0 0 0 0 0 0 0 0 0 0 0 0 0 0.25 0"/>
<feBlend mode="normal" in2="BackgroundImageFix" result="effect1_dropShadow_17_171"/>
<feBlend mode="normal" in="SourceGraphic" in2="effect1_dropShadow_17_171" result="shape"/>
</filter>
<filter id="filter2_d_17_171" x="300.497" y="117.997" width="118.545" height="283.005" filterUnits="userSpaceOnUse" color-interpolation-filters="sRGB">
<feFlood flood-opacity="0" result="BackgroundImageFix"/>
<feColorMatrix in="SourceAlpha" type="matrix" values="0 0 0 0 0 0 0 0 0 0 0 0 0 0 0 0 0 0 127 0" result="hardAlpha"/>
<feOffset dx="7" dy="2"/>
<feComposite in2="hardAlpha" operator="out"/>
<feColorMatrix type="matrix" values="0 0 0 0 0 0 0 0 0 0 0 0 0 0 0 0 0 0 0.25 0"/>
<feBlend mode="normal" in2="BackgroundImageFix" result="effect1_dropShadow_17_171"/>
<feBlend mode="normal" in="SourceGraphic" in2="effect1_dropShadow_17_171" result="shape"/>
</filter>
</defs>
</svg>
